X: 1459
T: the Jolly Weaver   #2
B: O'Neill's 1850 #1459
O: McFadden
Z: Bob Safranek, rjs@gsp.org
M: C|
L: 1/8
K: C
|: A>AGE ((3AcA) GE | ((3AcA) GEG2 ((3EFG) | AA2c BGGB |1 AddB {d}ccec :|2 Ad{e}dB c2(cd) |] ee2d efg2 |
| GAGE G2EG | AA2c BGGc | Ad{e}dB c2(cd) || ((3efg) ed efg2 | GAGE G2 ((3EFG) | AA2c BGGc | (Ad{e}dB) c2z2 |]
